X:6
T:Brilliancy
M:2/4
L:1/16
Z:jason
B: Red Williams, 1952
K:A
(3efg | a2e2 fgaf | edcA BAFD | E2C2 EFAB | cBAc B2(3efg |
a2e2 fgaf | edcA BAFD | E2F2 Acfc | ecBc A2 :|
|: EF | A2cA G2BG | FEFG AGFE | D2FD C2EC | B,A,B,C DCB,D |
CA,CE A2cA | EGBc dBcB | ABce fgaf | edcB A2 :|

